X: 21031
T: BOSTON SETT (tune 4)
C:
%R: reel, hornpipe
B: Elias Howe "The Musician's Companion" 1843 p.103 #1
S: http://imslp.org/wiki/The_Musician's_Companion_(Howe,_Elias)
Z: 2015 John Chambers <jc:trillian.mit.edu>
N: Rhythm between strains fixed by moving 1st strain's final rest to the beginning.
M: 2/4
L: 1/16
K: Bb
% - - - - - - - - - - - - - - - - - - - - - - - - - - - - -
V: 1 name="4"
z2 |\
d2(3(dcB) F2F2 | d2(3(dcB) g4 | g>fg>f d>df>d | c>cf>c B2F2 |\
d2(3(dcB) F2F2 | d2(3(dcB) g4 | g>fg>f d>df>e | c>ce>d B2 H|]
AB |\
cdc=B cdc_B | (3(Acf) a2 f4 | g>fg2 f>cf2 | g>fg2 a4 |\
c>dc>=B c>dc>_B | (3(Acf) a2 f4 | g>fg2 f>cf2 | a2g2 "^D.C."f2 |]
c2 |\
f2(3(fff) f2e2 | d2c2 B2cd | d2(3(ddd) d2c2 | B2A2 G>AB2 |\
cd=ef g2e2 | f=efa c2c2 | cd=ef g2e2 | f2a2"^D.C."f2 |]
% - - - - - - - - - - Dance description - - - - - - - - - -
%%begintext align
%% First two give right hand across,
%% left hand back,
%% form a line,
%% balance four,
%% half promenade,
%% ladies forward and back,
%% gentlemen the same,
%% balance four,
%% half right and left to place,
%% next two forward, &c.
%%endtext
% - - - - - - - - - - - - - - - - - - - - - - - - - - - - -
%%sep 1 1 300

%%sep 1 1 500

